assets/icons/React.svg

<svg width="32" height="32" viewBox="0 0 32 32" fill="none" xmlns="http://www.w3.org/2000/svg">
<path d="M16.748 25.2578C16.5169 25.0535 16.2758 24.8484 16.0455 24.6213C15.8613 24.7915 15.6888 24.951 15.5062 25.1097C13.2267 27.0748 10.8771 27.8928 9.48427 27.0976C8.13691 26.3365 7.71244 24.0881 8.25169 21.2594C8.30921 20.9528 8.37829 20.6462 8.45892 20.3396C8.21703 20.2684 7.98669 20.2029 7.75635 20.126C4.88828 19.147 3.00012 17.5572 3.00012 15.9666C3.00012 14.4338 4.76194 12.9458 7.51368 11.9917C7.82183 11.8892 8.14692 11.7874 8.48126 11.6963C8.40422 11.4008 8.34337 11.1167 8.28559 10.8419C7.70936 7.97053 8.11226 5.67656 9.47118 4.90408C10.8871 4.08603 13.2367 4.96104 15.5963 7.01649C15.7342 7.14108 15.8729 7.27778 16.0224 7.41377C16.2411 7.20943 16.4484 7.0051 16.6671 6.82355C18.9012 4.90123 21.1229 4.09742 22.4819 4.8699C23.8978 5.66446 24.313 8.1179 23.6798 11.1509C23.6451 11.3445 23.6027 11.5261 23.5534 11.7205C23.8415 11.8002 24.1289 11.8906 24.3939 11.9818C27.2034 12.9358 29.023 14.4238 28.9999 15.9908C28.9999 17.5921 27.054 19.1712 24.0696 20.148C23.9086 20.1936 23.7476 20.2506 23.5858 20.2954C23.6551 20.5225 23.7006 20.7496 23.7468 20.9768C24.3454 23.9186 23.8847 26.3265 22.4919 27.1218C22.1261 27.3253 21.7054 27.429 21.2785 27.4208C20.0021 27.4187 18.3812 26.6419 16.748 25.2578ZM19.0052 21.0893C18.3438 22.0402 17.6169 22.9507 16.8289 23.8154C17.0477 24.029 17.2665 24.2248 17.4853 24.4063C19.385 26.0189 21.1353 26.6212 21.9534 26.1556C22.2032 25.9568 22.4074 25.7136 22.5537 25.4405C22.7001 25.1674 22.7857 24.87 22.8054 24.5658C22.9716 23.4387 22.9247 22.2934 22.6667 21.1811C22.6321 20.9768 22.5897 20.7724 22.5288 20.5567C21.3687 20.8077 20.1914 20.9856 19.0052 21.0893ZM9.35562 21.4531C8.88416 23.8738 9.22928 25.6779 10.049 26.1442C10.3393 26.2564 10.6529 26.3082 10.9673 26.2958C11.2818 26.2835 11.5895 26.2075 11.8686 26.073C12.9543 25.6513 13.9431 25.0421 14.7821 24.2782C14.9546 24.1415 15.1156 23.9827 15.289 23.8239C14.4837 22.959 13.7376 22.0485 13.0549 21.0978C11.8732 21.0066 10.6997 20.8401 9.54282 20.5994C9.47118 20.8963 9.4134 21.1797 9.35562 21.4531ZM16.0578 23.0429C16.5647 22.4861 17.0708 21.8731 17.5777 21.1918C17.0708 21.2146 16.5416 21.226 16.0116 21.226C15.4816 21.226 14.987 21.2146 14.4916 21.1918C15.0093 21.861 15.5286 22.4861 16.0578 23.0429ZM13.6388 11.9575C13.2013 12.5819 12.7753 13.2391 12.3724 13.934C11.9695 14.6153 11.602 15.3081 11.2669 15.9987C11.6128 16.68 11.981 17.3728 12.3839 18.0776C12.7868 18.759 13.2128 19.4304 13.6504 20.0647C14.41 20.1103 15.205 20.1359 16.0108 20.1359C16.8166 20.1359 17.6224 20.1131 18.3943 20.0569C18.8088 19.4325 19.2348 18.7618 19.6384 18.0691C20.0421 17.3763 20.4211 16.6722 20.7555 15.9908C20.4211 15.3209 20.0413 14.6281 19.6384 13.9347C19.2355 13.2412 18.8095 12.5819 18.3835 11.9583C17.6132 11.9013 16.8174 11.8671 16.0116 11.8671C15.2058 11.8671 14.4108 11.9006 13.6388 11.9575ZM9.83941 19.5557C10.6295 19.7225 11.4291 19.8477 12.2345 19.9309C11.9579 19.4994 11.6821 19.0673 11.4171 18.613C11.1637 18.1702 10.9102 17.7273 10.6799 17.2845C10.3463 18.0563 10.0698 18.8188 9.83941 19.5557ZM20.6052 18.6016C20.3402 19.0559 20.0752 19.4873 19.811 19.9081C20.6285 19.8134 21.4396 19.677 22.2407 19.4994C21.9906 18.7327 21.6985 17.9783 21.3656 17.2389C21.1237 17.6932 20.8703 18.1474 20.6052 18.6016ZM7.87036 13.0362C5.52152 13.8542 4.10559 15.0454 4.10559 15.978C4.15037 16.2781 4.25883 16.567 4.42474 16.8282C4.59065 17.0895 4.81075 17.3178 5.0724 17.5002C5.97109 18.1987 7.00167 18.7377 8.11226 19.09C8.31949 19.1612 8.53827 19.2154 8.75705 19.2837C9.11075 18.1665 9.53755 17.0702 10.0351 16.0008C9.53659 14.9498 9.11352 13.8695 8.76861 12.7671C8.45789 12.8439 8.15848 12.9337 7.87036 13.0362ZM21.9988 15.978C22.5098 17.0338 22.9472 18.1187 23.3085 19.226C23.4587 19.1805 23.6081 19.1349 23.746 19.0893C26.3136 18.2492 27.906 16.9655 27.9145 15.9659C27.9145 15.0347 26.4408 13.83 24.0341 13.0127C23.7922 12.9337 23.528 12.8539 23.2638 12.7742C22.9149 13.8655 22.4925 14.9355 21.9988 15.978ZM20.5945 13.3658C20.8595 13.8201 21.1129 14.2636 21.3425 14.7065C21.6624 13.9827 21.9391 13.2433 22.1714 12.4915C21.3893 12.3159 20.5975 12.1795 19.7994 12.0829C20.076 12.5022 20.341 12.923 20.5945 13.3658ZM9.85097 12.4823C10.0821 13.2092 10.3579 13.9475 10.6799 14.7079C10.911 14.265 11.1637 13.8222 11.4171 13.3793C11.6706 12.9365 11.9348 12.5051 12.2114 12.0843C11.3825 12.1847 10.5998 12.3207 9.85097 12.4823ZM17.3928 7.65512C17.1972 7.82528 17.0015 8.00684 16.805 8.1891C17.6046 9.0431 18.3395 9.94707 19.0044 10.8946C20.1762 10.9991 21.3384 11.1814 22.4819 11.4399C22.5281 11.2698 22.5589 11.0989 22.5974 10.9288C23.1367 8.31654 22.8046 6.31734 21.9295 5.81825C21.7374 5.7186 21.5195 5.66936 21.2993 5.67585C20.3587 5.67158 18.9151 6.34866 17.3928 7.65299V7.65512ZM10.0235 5.84673C9.20617 6.31235 8.88339 8.17486 9.36718 10.6283C9.42496 10.8896 9.48273 11.1502 9.5513 11.4229C10.6963 11.1738 11.858 10.9954 13.0287 10.8889C13.696 9.94018 14.4348 9.03612 15.2397 8.18341C15.1133 8.0581 14.9747 7.9449 14.8483 7.83098C13.246 6.43054 11.7052 5.69152 10.6991 5.69152C10.4627 5.68406 10.2287 5.73782 10.0235 5.84673ZM17.5538 10.7985C17.079 10.1635 16.5667 9.55311 16.0193 8.97013C15.5016 9.52618 14.9831 10.1399 14.4785 10.7985C14.9854 10.7757 15.4916 10.7643 16.01 10.7643C16.5285 10.7643 17.0469 10.7735 17.5538 10.7985ZM13.7082 16.0236C13.6974 15.7317 13.749 15.4407 13.8601 15.1672C13.9713 14.8938 14.1397 14.6433 14.3557 14.4302C14.5718 14.217 14.8312 14.0453 15.1192 13.925C15.4072 13.8047 15.718 13.738 16.0339 13.7289C16.6713 13.749 17.274 14.0018 17.71 14.432C18.146 14.8621 18.3796 15.4345 18.3596 16.0236C18.3802 16.6132 18.1468 17.1862 17.7106 17.6168C17.2743 18.0475 16.671 18.3005 16.0331 18.3204C15.7171 18.3113 15.4061 18.2446 15.118 18.1241C14.8299 18.0037 14.5704 17.8318 14.3544 17.6184C14.1384 17.405 13.9701 17.1542 13.8592 16.8806C13.7483 16.6069 13.697 16.3157 13.7082 16.0236Z" fill="#3996DB"/>
</svg>

<svg xmlns="http://www.w3.org/2000/svg" width="32" height="32" fill="none"><path fill="#3996DB" d="M16.748 25.258c-.231-.204-.472-.41-.703-.637-.184.17-.356.33-.539.489-2.28 1.965-4.629 2.783-6.022 1.988-1.347-.761-1.772-3.01-1.232-5.839q.085-.46.207-.92c-.242-.07-.472-.136-.703-.213C4.888 19.147 3 17.557 3 15.966c0-1.532 1.762-3.02 4.514-3.974.308-.103.633-.205.967-.296a18 18 0 0 1-.195-.854C7.709 7.97 8.112 5.677 9.47 4.904c1.416-.818 3.766.057 6.125 2.112.138.125.277.262.426.398.22-.205.426-.409.645-.59 2.234-1.923 4.456-2.727 5.815-1.954 1.416.794 1.831 3.248 1.198 6.28a8 8 0 0 1-.127.57c.288.08.576.17.84.262 2.81.954 4.63 2.442 4.607 4.009 0 1.601-1.946 3.18-4.93 4.157-.161.046-.322.103-.484.147.07.227.115.455.16.682.6 2.942.139 5.35-1.254 6.145a2.4 2.4 0 0 1-1.213.299c-1.277-.002-2.898-.78-4.531-2.163m2.257-4.169a27 27 0 0 1-2.176 2.726q.329.32.656.591c1.9 1.613 3.65 2.215 4.468 1.75a2.3 2.3 0 0 0 .6-.715c.147-.274.233-.571.252-.875a9.1 9.1 0 0 0-.138-3.385 6 6 0 0 0-.138-.624c-1.16.25-2.338.429-3.524.532m-9.65.364c-.47 2.42-.126 4.225.694 4.691a2.3 2.3 0 0 0 1.82-.071 9.4 9.4 0 0 0 2.913-1.795c.173-.136.334-.295.507-.454a28 28 0 0 1-2.234-2.726 28 28 0 0 1-3.512-.499c-.072.297-.13.58-.187.854m6.703 1.59a24 24 0 0 0 1.52-1.851 35 35 0 0 1-3.086 0c.517.669 1.037 1.294 1.566 1.85m-2.42-11.085a27 27 0 0 0-1.266 1.976c-.402.681-.77 1.374-1.105 2.065.346.681.714 1.374 1.117 2.079.403.681.829 1.352 1.266 1.987.76.045 1.555.07 2.36.07.807 0 1.612-.022 2.384-.078.415-.624.84-1.295 1.244-1.988s.783-1.397 1.117-2.078a37 37 0 0 0-1.117-2.056 32 32 0 0 0-1.255-1.977 32 32 0 0 0-2.371-.09c-.806 0-1.601.033-2.373.09M9.84 19.556q1.186.25 2.396.375a37 37 0 0 1-.818-1.318c-.253-.443-.507-.886-.737-1.328a23 23 0 0 0-.84 2.27m10.766-.954c-.265.454-.53.885-.794 1.306a24 24 0 0 0 2.43-.409 23 23 0 0 0-.875-2.26q-.363.68-.76 1.363M7.87 13.036c-2.348.818-3.764 2.01-3.764 2.942.044.3.153.589.319.85.166.262.386.49.647.672a9.8 9.8 0 0 0 3.04 1.59c.207.071.426.125.645.194q.531-1.677 1.278-3.283a25 25 0 0 1-1.266-3.234q-.466.116-.899.27M22 15.978q.766 1.585 1.31 3.248c.15-.046.3-.091.437-.137 2.568-.84 4.16-2.123 4.169-3.123 0-.931-1.474-2.136-3.88-2.953a37 37 0 0 0-.771-.239 26 26 0 0 1-1.265 3.204m-1.404-2.612c.265.454.518.898.748 1.34q.48-1.086.828-2.214a24 24 0 0 0-2.372-.41c.277.42.542.841.796 1.284M9.85 12.482c.231.727.507 1.466.829 2.226.231-.443.484-.886.737-1.329q.38-.663.794-1.295c-.828.1-1.611.237-2.36.398m7.542-4.827c-.196.17-.392.352-.588.534q1.201 1.282 2.2 2.706c1.171.104 2.333.286 3.477.545.046-.17.077-.341.115-.511.54-2.612.208-4.612-.668-5.11-.192-.1-.41-.15-.63-.143-.94-.004-2.384.673-3.906 1.977zm-7.37-1.808c-.817.465-1.14 2.328-.656 4.781.058.262.116.522.184.795a29 29 0 0 1 3.478-.534 24 24 0 0 1 2.21-2.706c-.126-.125-.264-.238-.39-.352-1.603-1.4-3.144-2.14-4.15-2.14a1.35 1.35 0 0 0-.675.156m7.53 4.952A21 21 0 0 0 16.02 8.97a25 25 0 0 0-1.54 1.829 34 34 0 0 1 3.075 0m-3.845 5.225a2.1 2.1 0 0 1 .152-.857c.111-.273.28-.524.496-.737s.475-.385.763-.505.599-.187.915-.196a2.5 2.5 0 0 1 1.676.703c.436.43.67 1.002.65 1.592.02.59-.213 1.162-.65 1.593a2.5 2.5 0 0 1-1.677.703 2.6 2.6 0 0 1-.915-.196 2.4 2.4 0 0 1-.764-.506 2.2 2.2 0 0 1-.495-.737 2.1 2.1 0 0 1-.15-.857"/></svg>
